src/assets/Icone pesquisar.svg

<svg width="48" height="48" viewBox="0 0 48 48" fill="none" xmlns="http://www.w3.org/2000/svg">
<circle cx="24" cy="24" r="24" fill="#5A5A5A"/>
<mask id="mask0_4_52" style="mask-type:alpha" maskUnits="userSpaceOnUse" x="12" y="12" width="24" height="24">
<rect x="12" y="12" width="24" height="24" fill="#D9D9D9"/>
</mask>
<g mask="url(#mask0_4_52)">
<path d="M31.6 33L25.3 26.7C24.8 27.1 24.225 27.4167 23.575 27.65C22.925 27.8833 22.2333 28 21.5 28C19.6833 28 18.1458 27.3708 16.8875 26.1125C15.6292 24.8542 15 23.3167 15 21.5C15 19.6833 15.6292 18.1458 16.8875 16.8875C18.1458 15.6292 19.6833 15 21.5 15C23.3167 15 24.8542 15.6292 26.1125 16.8875C27.3708 18.1458 28 19.6833 28 21.5C28 22.2333 27.8833 22.925 27.65 23.575C27.4167 24.225 27.1 24.8 26.7 25.3L33 31.6L31.6 33ZM21.5 26C22.75 26 23.8125 25.5625 24.6875 24.6875C25.5625 23.8125 26 22.75 26 21.5C26 20.25 25.5625 19.1875 24.6875 18.3125C23.8125 17.4375 22.75 17 21.5 17C20.25 17 19.1875 17.4375 18.3125 18.3125C17.4375 19.1875 17 20.25 17 21.5C17 22.75 17.4375 23.8125 18.3125 24.6875C19.1875 25.5625 20.25 26 21.5 26Z" fill="#F6F6F6"/>
</g>
</svg>

<svg xmlns="http://www.w3.org/2000/svg" width="48" height="48" fill="none" viewBox="0 0 48 48"><circle cx="24" cy="24" r="24" fill="#5a5a5a"/><mask id="a" width="24" height="24" x="12" y="12" maskUnits="userSpaceOnUse" style="mask-type:alpha"><path fill="#d9d9d9" d="M12 12h24v24H12z"/></mask><g mask="url(#a)"><path fill="#f6f6f6" d="m31.6 33-6.3-6.3q-.75.6-1.725.95T21.5 28q-2.725 0-4.613-1.887Q15 24.225 15 21.5t1.887-4.613Q18.776 15 21.5 15t4.613 1.887Q28 18.776 28 21.5a6.1 6.1 0 0 1-1.3 3.8l6.3 6.3zm-10.1-7q1.875 0 3.188-1.312Q26 23.375 26 21.5t-1.312-3.187T21.5 17t-3.187 1.313T17 21.5t1.313 3.188T21.5 26"/></g></svg>
